X:7890
T:Dance
C:Guillaume de Marchault
O:France
N:14th Century
Z:Transcribed by Frank Nordberg - http://www.musicaviva.com
F:http://abc.musicaviva.com/tunes/marchault-guillaume-de/marchault-dance.abc
M:3/4
L:1/4
K:F
A2A|A3|B2A|G3|AA/G/F/E/|F2z|AGA|
Bcd|cB2|c2z|d2d|d3|c2c|A3|
BA/G/A/B/|G2z|ABc|BAG|AG/F/G/F/|E2z|F2G|
A2B|AA/G/F/E/|G2z|A2c|BAG|FE2|F3|]
W:
W:
W:  From Musica Viva - http://www.musicaviva.com
W:  the Internet center for free sheet music downloads.
